X: 60
Q: "Moderato."
M: C
L: 1/4
K: G
V: 1
!mf!D | D B A G | F> E D D | D E/F/ G B | d3 d |
d> e d B | A> B A F | E/F/ G F E | D3 D |
"^Chorus."D | D B A G | F> E D D | D E/F/ G B | e3 |
d | c> B A B/c/ | B A G B/d/ | e d/c/ B A | G3 |]
V: 2 brace=2 staves=2
[dGD]> [eGE] [dGD] [BGD] | [AE^C]> [BEC] [AD] [FD] | E/F/ [GDB,] [F^CA,] [ECG,] & [DB,] x x x |  [D3A,3F,3] D |
[AF]> [^G^E] [AF] [^AF] | [BG] G D G/B/ | d d d e/c/ & F ^E F F | [B3G3] [BAD] |
[B^GE]> [BGE] [eBE] [BGE] | [cAE] [B^GE] [AE] [=GE] | [FD]> [FD] [G^C] [EC] | [A3D3] |
[DCA,] | [DB,] [BB,] [AB,] [GB,] | F> E D D & C C C A, | D E/F/ G [BA] & D C B, D | [e3E3] & (^G> A B) |
[d^GE] | [cAE]>[B^GE] [AE] [B/AE]c/ | [BF^D] [AFB,] [GEB,] [B/=F]d/ | e d/c/ B [AFD] & E E G D/C/ | [G3E3B,3] |]
V: 3 clef=bass middle=d
d | [dG2] d [dD2] d | [dA2] c [fD2] d | [dG2] d [dD2] d | [dA]> ^GA [c'c] |
[bB] [c'c] [bB] [gG] | [gG]> [gG] [fF] [fB] | [gG] [eE] A [AA,] | [d3D3] d |
[c'd]> [bd] [c'd] [c'd] | [bg] [bd] [bg] [bd] | [c'a] [b^g] [c'a] [c'd] | d'3 [=f=F] & (g> a g) x |
[Ee]> [eE] [^g^G] [eE] | [aA] [bB] [c'c] [a^c] | [ad]> [ad] [ae] [ag] | [a3f3] |
[dF] | [dG] [dD] [dG] [dD] | [dA] [dG] [dF] [fc] | [gB] [dA] [dG] [=f=F] | ([eE]> [^f^F] [^g^G]) |
[eE] [aA]> [bB] [c'c] [fF] | [bB] [^d^D] [eE] [g=d] | g ^g/a/ b d & c c d [dD] | [g3G3] |]


